X: 199
T:Tekeli Tune. JaW.198
T:Tikeli,aka. JaW.198
M:6/8
L:1/8
Q:120
S:James Winder Ms, Lancashire, 1835-41
R:Jig
O:England
A:Wyresdale,Lancashire
H:1/8
Z:vmp.Chris Partington, Aug 2004
K:C
c2c cBc|A2c G3|GAB cde|f2d B2G|!
c2c cBc|A2c G3|GAB cde|fdB c3:|!
|:c2d e3|efe d2c|{e}d2c {e}d2c|c2d e3|!
c2d e3|efe d2c|d2cd2g|c3 c3:|]
